X: 154
T: Song in Honor of Onihang
C: Teton Sioux band 1911-1914
N: Derived from sioux150.krn
O: South Dakota, U.S.A.
N: Teton Sioux Music by Frances Densmore, 1918
Z: transcribed to **kern format by Craig Sapp
L: 1/8
M: 3/4
Q: 1/4=58
K: Eb clef=bass
%%linebreak <none>
F/ [I:setbarnb 1]| 
F> EC3E | 
E> CC2C F | 
F> EC2C E | 
C> B,G,2G, G, ||  
[M:2/4]F,> G,F,2 | 
E, C,- C, F, ||  
[M:3/4]E,> F,E,2E,3/ C,/ ||  
[M:2/4]C,4- | 
C,3C | 
F/> F/ F F/ E3/ | 
F F/> E/C2 | 
(B, G,) G, G,3// G,// | 
F,> G,F,2 | 
E, C,- C, F, ||  
[M:3/4]E,> F,E,2E,3/ C,/ | 
C,6 |]  



